X:2767
L:1/8
Q:1/8=180
M:12/8
K:G
 D | G2 F G2 A B2 e efe | d2 B BAB d2 B BAB | GAG G2 A Bee efe | d2 B BAB G3 G2 D | 
 G2 F G2 A B2 e efe | ded BAB dBB dBA | G3 G2 A B2 e efe | ddB ABA G3 G3 |: gfg edB e2 f g2 e | 
 d2 B BAB d2 B BAB | gfg edB e2 f gfe | d2 B BAB G3 G3 :|

